docs/services/img/plantuml/blockvalidation/block_validation_p2p_block_subtree_retrieval.svg

<svg contentStyleType="text/css" height="637" preserveAspectRatio="none" viewBox="0 0 1151 637" width="1151" xmlns="http://www.w3.org/2000/svg" zoomAndPan="magnify"><path d="m63 106.7988h10v438.0371h-10z" fill="#fff" stroke="#181818"/><path d="m832 224.041h10v29.3105h-10z" fill="#fff" stroke="#181818"/><path d="m959.5 141.1094h10v29.3105h-10z" fill="#fff" stroke="#181818"/><path d="m959.5 515.8359h10v14h-10z" fill="#fff" stroke="#181818"/><path d="m1069.5 290.6621h10v102.9316h-10z" fill="#fff" stroke="#181818"/><path d="m10 185.4199h1135v352.416h-1135z" fill="none" stroke="#000" stroke-width="1.5"/><path d="m20 310.6621h1115v75.9316h-1115z" fill="none" stroke="#000" stroke-width="1.5"/><g stroke="#181818"><path d="m68 67.4883v487.3476" stroke-dasharray="5 5" stroke-width=".5"/><path d="m712 67.4883v487.3476" stroke-dasharray="5 5" stroke-width=".5"/><path d="m837 67.4883v487.3476" stroke-dasharray="5 5" stroke-width=".5"/><path d="m964 67.4883v487.3476" stroke-dasharray="5 5" stroke-width=".5"/><path d="m1074 67.4883v487.3476" stroke-dasharray="5 5" stroke-width=".5"/><rect fill="#e2e2f0" height="30.4883" rx="2.5" stroke-width=".5" width="76" x="30" y="36"/></g><text font-family="sans-serif" font-size="14" lengthAdjust="spacing" textLength="62" x="37" y="56.5352">Validator</text><rect fill="#e2e2f0" height="30.4883" rx="2.5" stroke="#181818" stroke-width=".5" width="76" x="30" y="553.8359"/><text font-family="sans-serif" font-size="14" lengthAdjust="spacing" textLength="62" x="37" y="574.3711">Validator</text><text font-family="sans-serif" font-size="14" lengthAdjust="spacing" textLength="88" x="665" y="64.5352">Subtree Data</text><ellipse cx="712" cy="35" fill="#e2e2f0" rx="12" ry="12" stroke="#181818" stroke-width=".5"/><path d="m700 49h24" stroke="#181818" stroke-width=".5"/><text font-family="sans-serif" font-size="14" lengthAdjust="spacing" textLength="88" x="665" y="567.3711">Subtree Data</text><ellipse cx="712" cy="586.3242" fill="#e2e2f0" rx="12" ry="12" stroke="#181818" stroke-width=".5"/><path d="m700 600.3242h24" stroke="#181818" stroke-width=".5"/><rect fill="#e2e2f0" height="30.4883" rx="2.5" stroke="#181818" stroke-width=".5" width="136" x="769" y="36"/><text font-family="sans-serif" font-size="14" lengthAdjust="spacing" textLength="122" x="776" y="56.5352">Util HTTP Request</text><rect fill="#e2e2f0" height="30.4883" rx="2.5" stroke="#181818" stroke-width=".5" width="136" x="769" y="553.8359"/><text font-family="sans-serif" font-size="14" lengthAdjust="spacing" textLength="122" x="776" y="574.3711">Util HTTP Request</text><text font-family="sans-serif" font-size="14" lengthAdjust="spacing" textLength="93" x="915" y="64.5352">Subtree Store</text><path d="m946.5 15c0-10 18-10 18-10s18 0 18 10v26c0 10-18 10-18 10s-18 0-18-10z" fill="#e2e2f0" stroke="#181818" stroke-width="1.5"/><path d="m946.5 15c0 10 18 10 18 10s18 0 18-10" fill="none" stroke="#181818" stroke-width="1.5"/><text font-family="sans-serif" font-size="14" lengthAdjust="spacing" textLength="93" x="915" y="567.3711">Subtree Store</text><path d="m946.5 580.3242c0-10 18-10 18-10s18 0 18 10v26c0 10-18 10-18 10s-18 0-18-10z" fill="#e2e2f0" stroke="#181818" stroke-width="1.5"/><path d="m946.5 580.3242c0 10 18 10 18 10s18 0 18-10" fill="none" stroke="#181818" stroke-width="1.5"/><text font-family="sans-serif" font-size="14" lengthAdjust="spacing" textLength="95" x="1024" y="64.5352">Tx Meta Store</text><path d="m1056.5 15c0-10 18-10 18-10s18 0 18 10v26c0 10-18 10-18 10s-18 0-18-10z" fill="#e2e2f0" stroke="#181818" stroke-width="1.5"/><path d="m1056.5 15c0 10 18 10 18 10s18 0 18-10" fill="none" stroke="#181818" stroke-width="1.5"/><text font-family="sans-serif" font-size="14" lengthAdjust="spacing" textLength="95" x="1024" y="567.3711">Tx Meta Store</text><g stroke="#181818"><path d="m1056.5 580.3242c0-10 18-10 18-10s18 0 18 10v26c0 10-18 10-18 10s-18 0-18-10z" fill="#e2e2f0" stroke-width="1.5"/><path d="m1056.5 580.3242c0 10 18 10 18 10s18 0 18-10" fill="none" stroke-width="1.5"/><g fill="#fff"><path d="m63 106.7988h10v438.0371h-10z"/><path d="m832 224.041h10v29.3105h-10z"/><path d="m959.5 141.1094h10v29.3105h-10z"/><path d="m959.5 515.8359h10v14h-10z"/><path d="m1069.5 290.6621h10v102.9316h-10z"/></g><path d="m68 93.7988h47"/><path d="m115 93.7988v13"/><path d="m74 106.7988h41"/><path d="m84 102.7988-10 4 10 4-4-4z" fill="#181818"/></g><text font-family="sans-serif" font-size="13" lengthAdjust="spacing" textLength="272" x="80" y="89.0566">validateSubtree(ctx, subtreeHash, baseURL)</text><path d="m947.5 137.1094 10 4-10 4 4-4z" fill="#181818" stroke="#181818"/><path d="m73 141.1094h880.5" stroke="#181818"/><text font-family="sans-serif" font-size="13" lengthAdjust="spacing" textLength="280" x="80" y="136.3672">subtreeStore.Exists(spanCtx, subtreeHash[:])</text><path d="m84 166.4199-10 4 10 4-4-4z" fill="#181818" stroke="#181818"/><path d="m78 170.4199h885.5" stroke="#181818" stroke-dasharray="2 2"/><text font-family="sans-serif" font-size="13" lengthAdjust="spacing" textLength="117" x="90" y="165.6777">subtreeExists / err</text><path d="m10 185.4199h62v7.3106l-10 10h-52z" fill="#eee" stroke="#000" stroke-width="1.5"/><path d="m10 185.4199h1135v352.416h-1135z" fill="none" stroke="#000" stroke-width="1.5"/><text font-family="sans-serif" font-size="13" font-weight="bold" lengthAdjust="spacing" textLength="17" x="25" y="198.9883">alt</text><text font-family="sans-serif" font-size="11" font-weight="bold" lengthAdjust="spacing" textLength="127" x="87" y="198.0547">[subtreeExists is false]</text><path d="m820 220.041 10 4-10 4 4-4z" fill="#181818" stroke="#181818"/><path d="m73 224.041h753" stroke="#181818"/><text font-family="sans-serif" font-size="13" lengthAdjust="spacing" textLength="186" x="80" y="219.2988">DoHTTPRequest(spanCtx, url)</text><path d="m84 249.3516-10 4 10 4-4-4z" fill="#181818" stroke="#181818"/><path d="m78 253.3516h758" stroke="#181818" stroke-dasharray="2 2"/><text font-family="sans-serif" font-size="13" lengthAdjust="spacing" textLength="112" x="90" y="248.6094">subtreeBytes / err</text><path d="m73 277.6621h47" stroke="#181818"/><path d="m120 277.6621v13" stroke="#181818"/><path d="m79 290.6621h41" stroke="#181818"/><path d="m89 286.6621-10 4 10 4-4-4z" fill="#181818" stroke="#181818"/><text font-family="sans-serif" font-size="13" lengthAdjust="spacing" textLength="132" x="85" y="272.9199">Process subtreeBytes</text><path d="m20 310.6621h74v7.3106l-10 10h-64z" fill="#eee" stroke="#000" stroke-width="1.5"/><path d="m20 310.6621h1115v75.9316h-1115z" fill="none" stroke="#000" stroke-width="1.5"/><text font-family="sans-serif" font-size="13" font-weight="bold" lengthAdjust="spacing" textLength="29" x="35" y="324.2305">loop</text><text font-family="sans-serif" font-size="11" font-weight="bold" lengthAdjust="spacing" textLength="96" x="109" y="323.2969">[for each txHash]</text><path d="m1057.5 345.2832 10 4-10 4 4-4z" fill="#181818" stroke="#181818"/><path d="m73 349.2832h990.5" stroke="#181818"/><text font-family="sans-serif" font-size="13" lengthAdjust="spacing" textLength="230" x="80" y="344.541">txMetaStore.GetMeta(gCtx, &amp;txHash)</text><path d="m84 374.5938-10 4 10 4-4-4z" fill="#181818" stroke="#181818"/><path d="m78 378.5938h990.5" stroke="#181818" stroke-dasharray="2 2"/><text font-family="sans-serif" font-size="13" lengthAdjust="spacing" textLength="75" x="90" y="373.8516">txMeta / err</text><path d="m73 414.9043h42" stroke="#181818"/><path d="m115 414.9043v13" stroke="#181818"/><path d="m74 427.9043h41" stroke="#181818"/><path d="m84 423.9043-10 4 10 4-4-4z" fill="#181818" stroke="#181818"/><text font-family="sans-serif" font-size="13" lengthAdjust="spacing" textLength="620" x="80" y="410.1621">processMissingTransactions(ctx, subtreeHash, missingTxHashesCompacted, baseUrl, txMetaSlice)</text><path d="m700 453.2148 10 4-10 4 4-4z" fill="#181818" stroke="#181818"/><path d="m73 457.2148h633" stroke="#181818"/><text font-family="sans-serif" font-size="13" lengthAdjust="spacing" textLength="175" x="80" y="452.4727">Add transactions to Subtree</text><path d="m700 482.5254 10 4-10 4 4-4z" fill="#181818" stroke="#181818"/><path d="m73 486.5254h633" stroke="#181818"/><text font-family="sans-serif" font-size="13" lengthAdjust="spacing" textLength="312" x="80" y="481.7832">AddNode(txHash, txMeta.Fee, txMeta.SizeInBytes)</text><path d="m947.5 511.8359 10 4-10 4 4-4z" fill="#181818" stroke="#181818"/><path d="m73 515.8359h880.5" stroke="#181818"/><text font-family="sans-serif" font-size="13" lengthAdjust="spacing" textLength="317" x="80" y="511.0938">Set(spanCtx, merkleRoot[:], completeSubtreeBytes)</text><path d="m84 525.8359-10 4 10 4-4-4z" fill="#181818" stroke="#181818"/><path d="m78 529.8359h885.5" stroke="#181818" stroke-dasharray="2 2"/><text fill="#888" font-family="sans-serif" font-size="10" lengthAdjust="spacing" textLength="152" y="626.9922">Last Modified On: 28-Jan-2024</text></svg>

<?xml version="1.0" encoding="us-ascii" standalone="no"?><svg xmlns="http://www.w3.org/2000/svg" xmlns:xlink="http://www.w3.org/1999/xlink" contentStyleType="text/css" height="637px" preserveAspectRatio="none" style="width:1157px;height:637px;background:#FFFFFF;" version="1.1" viewBox="0 0 1157 637" width="1157px" zoomAndPan="magnify"><defs/><g><rect fill="#FFFFFF" height="438.0371" style="stroke:#181818;stroke-width:1.0;" width="10" x="63" y="106.7988"/><rect fill="#FFFFFF" height="29.3105" style="stroke:#181818;stroke-width:1.0;" width="10" x="832" y="224.041"/><rect fill="#FFFFFF" height="29.3105" style="stroke:#181818;stroke-width:1.0;" width="10" x="959.5" y="141.1094"/><rect fill="#FFFFFF" height="14" style="stroke:#181818;stroke-width:1.0;" width="10" x="959.5" y="515.8359"/><rect fill="#FFFFFF" height="102.9316" style="stroke:#181818;stroke-width:1.0;" width="10" x="1072.5" y="290.6621"/><rect fill="none" height="352.416" style="stroke:#000000;stroke-width:1.5;" width="1141" x="10" y="185.4199"/><rect fill="none" height="75.9316" style="stroke:#000000;stroke-width:1.5;" width="1121" x="20" y="310.6621"/><line style="stroke:#181818;stroke-width:0.5;stroke-dasharray:5.0,5.0;" x1="68" x2="68" y1="67.4883" y2="554.8359"/><line style="stroke:#181818;stroke-width:0.5;stroke-dasharray:5.0,5.0;" x1="712" x2="712" y1="67.4883" y2="554.8359"/><line style="stroke:#181818;stroke-width:0.5;stroke-dasharray:5.0,5.0;" x1="837" x2="837" y1="67.4883" y2="554.8359"/><line style="stroke:#181818;stroke-width:0.5;stroke-dasharray:5.0,5.0;" x1="964" x2="964" y1="67.4883" y2="554.8359"/><line style="stroke:#181818;stroke-width:0.5;stroke-dasharray:5.0,5.0;" x1="1077" x2="1077" y1="67.4883" y2="554.8359"/><rect fill="#E2E2F0" height="30.4883" rx="2.5" ry="2.5" style="stroke:#181818;stroke-width:0.5;" width="76" x="30" y="36"/><text fill="#000000" font-family="sans-serif" font-size="14" lengthAdjust="spacing" textLength="62" x="37" y="56.5352">Validator</text><rect fill="#E2E2F0" height="30.4883" rx="2.5" ry="2.5" style="stroke:#181818;stroke-width:0.5;" width="76" x="30" y="553.8359"/><text fill="#000000" font-family="sans-serif" font-size="14" lengthAdjust="spacing" textLength="62" x="37" y="574.3711">Validator</text><text fill="#000000" font-family="sans-serif" font-size="14" lengthAdjust="spacing" textLength="88" x="665" y="64.5352">Subtree Data</text><ellipse cx="712" cy="35" fill="#E2E2F0" rx="12" ry="12" style="stroke:#181818;stroke-width:0.5;"/><line style="stroke:#181818;stroke-width:0.5;" x1="700" x2="724" y1="49" y2="49"/><text fill="#000000" font-family="sans-serif" font-size="14" lengthAdjust="spacing" textLength="88" x="665" y="567.3711">Subtree Data</text><ellipse cx="712" cy="586.3242" fill="#E2E2F0" rx="12" ry="12" style="stroke:#181818;stroke-width:0.5;"/><line style="stroke:#181818;stroke-width:0.5;" x1="700" x2="724" y1="600.3242" y2="600.3242"/><rect fill="#E2E2F0" height="30.4883" rx="2.5" ry="2.5" style="stroke:#181818;stroke-width:0.5;" width="136" x="769" y="36"/><text fill="#000000" font-family="sans-serif" font-size="14" lengthAdjust="spacing" textLength="122" x="776" y="56.5352">Util HTTP Request</text><rect fill="#E2E2F0" height="30.4883" rx="2.5" ry="2.5" style="stroke:#181818;stroke-width:0.5;" width="136" x="769" y="553.8359"/><text fill="#000000" font-family="sans-serif" font-size="14" lengthAdjust="spacing" textLength="122" x="776" y="574.3711">Util HTTP Request</text><text fill="#000000" font-family="sans-serif" font-size="14" lengthAdjust="spacing" textLength="93" x="915" y="64.5352">Subtree Store</text><path d="M946.5,15 C946.5,5 964.5,5 964.5,5 C964.5,5 982.5,5 982.5,15 L982.5,41 C982.5,51 964.5,51 964.5,51 C964.5,51 946.5,51 946.5,41 L946.5,15 " fill="#E2E2F0" style="stroke:#181818;stroke-width:1.5;"/><path d="M946.5,15 C946.5,25 964.5,25 964.5,25 C964.5,25 982.5,25 982.5,15 " fill="none" style="stroke:#181818;stroke-width:1.5;"/><text fill="#000000" font-family="sans-serif" font-size="14" lengthAdjust="spacing" textLength="93" x="915" y="567.3711">Subtree Store</text><path d="M946.5,580.3242 C946.5,570.3242 964.5,570.3242 964.5,570.3242 C964.5,570.3242 982.5,570.3242 982.5,580.3242 L982.5,606.3242 C982.5,616.3242 964.5,616.3242 964.5,616.3242 C964.5,616.3242 946.5,616.3242 946.5,606.3242 L946.5,580.3242 " fill="#E2E2F0" style="stroke:#181818;stroke-width:1.5;"/><path d="M946.5,580.3242 C946.5,590.3242 964.5,590.3242 964.5,590.3242 C964.5,590.3242 982.5,590.3242 982.5,580.3242 " fill="none" style="stroke:#181818;stroke-width:1.5;"/><text fill="#000000" font-family="sans-serif" font-size="14" lengthAdjust="spacing" textLength="101" x="1024" y="64.5352">Tx Meta Cache</text><path d="M1059.5,15 C1059.5,5 1077.5,5 1077.5,5 C1077.5,5 1095.5,5 1095.5,15 L1095.5,41 C1095.5,51 1077.5,51 1077.5,51 C1077.5,51 1059.5,51 1059.5,41 L1059.5,15 " fill="#E2E2F0" style="stroke:#181818;stroke-width:1.5;"/><path d="M1059.5,15 C1059.5,25 1077.5,25 1077.5,25 C1077.5,25 1095.5,25 1095.5,15 " fill="none" style="stroke:#181818;stroke-width:1.5;"/><text fill="#000000" font-family="sans-serif" font-size="14" lengthAdjust="spacing" textLength="101" x="1024" y="567.3711">Tx Meta Cache</text><path d="M1059.5,580.3242 C1059.5,570.3242 1077.5,570.3242 1077.5,570.3242 C1077.5,570.3242 1095.5,570.3242 1095.5,580.3242 L1095.5,606.3242 C1095.5,616.3242 1077.5,616.3242 1077.5,616.3242 C1077.5,616.3242 1059.5,616.3242 1059.5,606.3242 L1059.5,580.3242 " fill="#E2E2F0" style="stroke:#181818;stroke-width:1.5;"/><path d="M1059.5,580.3242 C1059.5,590.3242 1077.5,590.3242 1077.5,590.3242 C1077.5,590.3242 1095.5,590.3242 1095.5,580.3242 " fill="none" style="stroke:#181818;stroke-width:1.5;"/><rect fill="#FFFFFF" height="438.0371" style="stroke:#181818;stroke-width:1.0;" width="10" x="63" y="106.7988"/><rect fill="#FFFFFF" height="29.3105" style="stroke:#181818;stroke-width:1.0;" width="10" x="832" y="224.041"/><rect fill="#FFFFFF" height="29.3105" style="stroke:#181818;stroke-width:1.0;" width="10" x="959.5" y="141.1094"/><rect fill="#FFFFFF" height="14" style="stroke:#181818;stroke-width:1.0;" width="10" x="959.5" y="515.8359"/><rect fill="#FFFFFF" height="102.9316" style="stroke:#181818;stroke-width:1.0;" width="10" x="1072.5" y="290.6621"/><line style="stroke:#181818;stroke-width:1.0;" x1="68" x2="115" y1="93.7988" y2="93.7988"/><line style="stroke:#181818;stroke-width:1.0;" x1="115" x2="115" y1="93.7988" y2="106.7988"/><line style="stroke:#181818;stroke-width:1.0;" x1="74" x2="115" y1="106.7988" y2="106.7988"/><polygon fill="#181818" points="84,102.7988,74,106.7988,84,110.7988,80,106.7988" style="stroke:#181818;stroke-width:1.0;"/><text fill="#000000" font-family="sans-serif" font-size="13" lengthAdjust="spacing" textLength="272" x="80" y="89.0566">validateSubtree(ctx, subtreeHash, baseURL)</text><polygon fill="#181818" points="947.5,137.1094,957.5,141.1094,947.5,145.1094,951.5,141.1094" style="stroke:#181818;stroke-width:1.0;"/><line style="stroke:#181818;stroke-width:1.0;" x1="73" x2="953.5" y1="141.1094" y2="141.1094"/><text fill="#000000" font-family="sans-serif" font-size="13" lengthAdjust="spacing" textLength="280" x="80" y="136.3672">subtreeStore.Exists(spanCtx, subtreeHash[:])</text><polygon fill="#181818" points="84,166.4199,74,170.4199,84,174.4199,80,170.4199" style="stroke:#181818;stroke-width:1.0;"/><line style="stroke:#181818;stroke-width:1.0;stroke-dasharray:2.0,2.0;" x1="78" x2="963.5" y1="170.4199" y2="170.4199"/><text fill="#000000" font-family="sans-serif" font-size="13" lengthAdjust="spacing" textLength="117" x="90" y="165.6777">subtreeExists / err</text><path d="M10,185.4199 L72,185.4199 L72,192.7305 L62,202.7305 L10,202.7305 L10,185.4199 " fill="#EEEEEE" style="stroke:#000000;stroke-width:1.5;"/><rect fill="none" height="352.416" style="stroke:#000000;stroke-width:1.5;" width="1141" x="10" y="185.4199"/><text fill="#000000" font-family="sans-serif" font-size="13" font-weight="bold" lengthAdjust="spacing" textLength="17" x="25" y="198.9883">alt</text><text fill="#000000" font-family="sans-serif" font-size="11" font-weight="bold" lengthAdjust="spacing" textLength="127" x="87" y="198.0547">[subtreeExists is false]</text><polygon fill="#181818" points="820,220.041,830,224.041,820,228.041,824,224.041" style="stroke:#181818;stroke-width:1.0;"/><line style="stroke:#181818;stroke-width:1.0;" x1="73" x2="826" y1="224.041" y2="224.041"/><text fill="#000000" font-family="sans-serif" font-size="13" lengthAdjust="spacing" textLength="186" x="80" y="219.2988">DoHTTPRequest(spanCtx, url)</text><polygon fill="#181818" points="84,249.3516,74,253.3516,84,257.3516,80,253.3516" style="stroke:#181818;stroke-width:1.0;"/><line style="stroke:#181818;stroke-width:1.0;stroke-dasharray:2.0,2.0;" x1="78" x2="836" y1="253.3516" y2="253.3516"/><text fill="#000000" font-family="sans-serif" font-size="13" lengthAdjust="spacing" textLength="112" x="90" y="248.6094">subtreeBytes / err</text><line style="stroke:#181818;stroke-width:1.0;" x1="73" x2="120" y1="277.6621" y2="277.6621"/><line style="stroke:#181818;stroke-width:1.0;" x1="120" x2="120" y1="277.6621" y2="290.6621"/><line style="stroke:#181818;stroke-width:1.0;" x1="79" x2="120" y1="290.6621" y2="290.6621"/><polygon fill="#181818" points="89,286.6621,79,290.6621,89,294.6621,85,290.6621" style="stroke:#181818;stroke-width:1.0;"/><text fill="#000000" font-family="sans-serif" font-size="13" lengthAdjust="spacing" textLength="132" x="85" y="272.9199">Process subtreeBytes</text><path d="M20,310.6621 L94,310.6621 L94,317.9727 L84,327.9727 L20,327.9727 L20,310.6621 " fill="#EEEEEE" style="stroke:#000000;stroke-width:1.5;"/><rect fill="none" height="75.9316" style="stroke:#000000;stroke-width:1.5;" width="1121" x="20" y="310.6621"/><text fill="#000000" font-family="sans-serif" font-size="13" font-weight="bold" lengthAdjust="spacing" textLength="29" x="35" y="324.2305">loop</text><text fill="#000000" font-family="sans-serif" font-size="11" font-weight="bold" lengthAdjust="spacing" textLength="96" x="109" y="323.2969">[for each txHash]</text><polygon fill="#181818" points="1060.5,345.2832,1070.5,349.2832,1060.5,353.2832,1064.5,349.2832" style="stroke:#181818;stroke-width:1.0;"/><line style="stroke:#181818;stroke-width:1.0;" x1="73" x2="1066.5" y1="349.2832" y2="349.2832"/><text fill="#000000" font-family="sans-serif" font-size="13" lengthAdjust="spacing" textLength="151" x="80" y="344.541">GetMeta(gCtx, &amp;txHash)</text><polygon fill="#181818" points="84,374.5938,74,378.5938,84,382.5938,80,378.5938" style="stroke:#181818;stroke-width:1.0;"/><line style="stroke:#181818;stroke-width:1.0;stroke-dasharray:2.0,2.0;" x1="78" x2="1071.5" y1="378.5938" y2="378.5938"/><text fill="#000000" font-family="sans-serif" font-size="13" lengthAdjust="spacing" textLength="75" x="90" y="373.8516">txMeta / err</text><line style="stroke:#181818;stroke-width:1.0;" x1="73" x2="115" y1="414.9043" y2="414.9043"/><line style="stroke:#181818;stroke-width:1.0;" x1="115" x2="115" y1="414.9043" y2="427.9043"/><line style="stroke:#181818;stroke-width:1.0;" x1="74" x2="115" y1="427.9043" y2="427.9043"/><polygon fill="#181818" points="84,423.9043,74,427.9043,84,431.9043,80,427.9043" style="stroke:#181818;stroke-width:1.0;"/><text fill="#000000" font-family="sans-serif" font-size="13" lengthAdjust="spacing" textLength="620" x="80" y="410.1621">processMissingTransactions(ctx, subtreeHash, missingTxHashesCompacted, baseUrl, txMetaSlice)</text><polygon fill="#181818" points="700,453.2148,710,457.2148,700,461.2148,704,457.2148" style="stroke:#181818;stroke-width:1.0;"/><line style="stroke:#181818;stroke-width:1.0;" x1="73" x2="706" y1="457.2148" y2="457.2148"/><text fill="#000000" font-family="sans-serif" font-size="13" lengthAdjust="spacing" textLength="175" x="80" y="452.4727">Add transactions to Subtree</text><polygon fill="#181818" points="700,482.5254,710,486.5254,700,490.5254,704,486.5254" style="stroke:#181818;stroke-width:1.0;"/><line style="stroke:#181818;stroke-width:1.0;" x1="73" x2="706" y1="486.5254" y2="486.5254"/><text fill="#000000" font-family="sans-serif" font-size="13" lengthAdjust="spacing" textLength="312" x="80" y="481.7832">AddNode(txHash, txMeta.Fee, txMeta.SizeInBytes)</text><polygon fill="#181818" points="947.5,511.8359,957.5,515.8359,947.5,519.8359,951.5,515.8359" style="stroke:#181818;stroke-width:1.0;"/><line style="stroke:#181818;stroke-width:1.0;" x1="73" x2="953.5" y1="515.8359" y2="515.8359"/><text fill="#000000" font-family="sans-serif" font-size="13" lengthAdjust="spacing" textLength="317" x="80" y="511.0938">Set(spanCtx, merkleRoot[:], completeSubtreeBytes)</text><polygon fill="#181818" points="84,525.8359,74,529.8359,84,533.8359,80,529.8359" style="stroke:#181818;stroke-width:1.0;"/><line style="stroke:#181818;stroke-width:1.0;stroke-dasharray:2.0,2.0;" x1="78" x2="963.5" y1="529.8359" y2="529.8359"/><text fill="#888888" font-family="sans-serif" font-size="10" lengthAdjust="spacing" textLength="152" x="0" y="626.9922">Last Modified On: 28-Jan-2024</text><!--SRC=[ZLHDRzim3BthLn0v50cGT4Emm-33W2tjrWtDLiHkByKEgiKqmXJBavZ2tQ-V92kfxBWVEONKu-FZbsjkI9QovXN1w8OhAJXfCm9k8LgOx-x883AiID8ZZA8DPvnu04Q7jrcTybsJL71H55Ummhyxj1JWtiiSCR_Z5f_eSfSNKxxWI8150qia3WjURbfWqNX7YsEifnTcd_ebPF3GTOnBQgPWM-E2syqKVAxhrUM4yPBaWuCUzM4eKIevsnC6w_IyaPRisBgMB7hPRhFVIPvEsQa1iw5I8azB3-y0ZM42XzaOLzGBa1RMN5bau7u35VafPN2c_VZYz9vgs1ar2O67T66etXDc_fBWBu-4Uxq-8D4SI9uJTCHtPNI9rdPukwBI_V0FIkiQrjg0Ixa1QlmCmiDmnYGyWsz8tXhVXmQSjC6JVNIA7QwU0Y2f6olHhx-ppszjGzssOIcjbTLzONXbFQ6kxC1sRoCgg4UxqDlQWL74lJTg6eNcIfOuULP5Sl8PV1O2ACaBfE5mB6zb-Aa5ZjkkxZMSVaKy_C_bF_nUXI6_AYkEBCTaPRTe_YXSQKtkwgPGkieL7e8ZRsTxEXVaNrwxoVuuEmH-tEbz7drLNdfJk2Qtk9hGm2Mt14ijv5gYW5zL1lEFin-ycitVpp-m_m00]--></g></svg>
